src/img/comment-fill.svg

<svg width="13" height="14" viewBox="0 0 13 14" fill="none" xmlns="http://www.w3.org/2000/svg">
<path d="M11.5 0.429993H1.5C1.10218 0.429993 0.720636 0.588027 0.439331 0.869331C0.158026 1.15064 0 1.53217 0 1.92999V9.92999C0.00262065 10.327 0.161492 10.707 0.44223 10.9878C0.722969 11.2685 1.10298 11.4274 1.5 11.43H7.34999L11 13.86V11.43H11.5C11.8978 11.43 12.2793 11.272 12.5607 10.9907C12.842 10.7093 13 10.3278 13 9.92999V1.92999C13 1.53217 12.842 1.15064 12.5607 0.869331C12.2793 0.588027 11.8978 0.429993 11.5 0.429993ZM7.78999 7.92999H3.5V6.92999H7.78999V7.92999ZM9.5 4.92999H3.5V3.92999H9.5V4.92999Z" fill="#EC1C82"/>
</svg>

<svg width="13" height="14" fill="none" xmlns="http://www.w3.org/2000/svg"><path d="M11.5.43h-10A1.5 1.5 0 0 0 0 1.93v8a1.51 1.51 0 0 0 1.5 1.5h5.85L11 13.86v-2.43h.5a1.5 1.5 0 0 0 1.5-1.5v-8a1.5 1.5 0 0 0-1.5-1.5Zm-3.71 7.5H3.5v-1h4.29v1Zm1.71-3h-6v-1h6v1Z" fill="#EC1C82"/></svg>
